X: 37275
T: Skidoo
R: reel
M: 4/4
K: Eminor
EB, (3B,B,B, G2 AB|GE ~E2 BEAG|FdAF D2 B,A,|B,FED E2EF|
GE (3EEE BEAB|GBef gfed|ABde f3(f|f)edB AdBA|
GE (3EEE BEAB|GBAB GBAG|FdAF D2 B,A,|B,FED E2 EF|
GE (3EEE BEAB|GBef gfed|ABde f3 (f|f)edB Adef||
|:ge (3eee B2ef|geBe cedc|BEGA BEGA|BEGA B^cdB|
e3 e ebba|gefd eAAB|cAEA BGEG|1 ADFD B,Eef:|2 AD (3FED B,EGF||

